X: 142
M: 2/4
L: 1/8
K: G
d2 cB | AG AG/F/ | G2 cB | AG AG/F/ | G2 :|
|: AB/^c/ |\
d2 d^c/d/ | e2 ed/e/ | f2 fe/f/ | g2 gf/g/ |\
a2 gf | ed ed/^c/ | d2 =cB | AG AG/F/ | G2 :|


